docs/images/icons/map.svg

<svg width="20" height="29.8" fill="none" xmlns="http://www.w3.org/2000/svg"><path d="M0 10c0 4.13 6.27 14.28 9.65 19.6.16.26.53.26.69 0C13.72 24.28 20 14.13 20 10 20 1.12 9.21-3.35 2.92 2.93 1.12 4.74 0 7.24 0 10Zm12.11-2.12a3 3 0 0 1 0 4.24C10.23 14 7 12.66 7 10s3.23-4 5.11-2.12ZM9.99 4.94c4.5 0 6.77 5.46 3.58 8.64-3.18 3.18-8.64.92-8.64-3.58 0-2.79 2.27-5.06 5.06-5.06Z" fill="#3742F3" fill-rule="evenodd"/><circle cx="10" cy="10" r="4" fill="#3742F3"/></svg>

<svg width="20.000000" height="29.799805" viewBox="0 0 20 29.7998" fill="none" xmlns="http://www.w3.org/2000/svg" xmlns:xlink="http://www.w3.org/1999/xlink">
	<desc>
			Created with Pixso.
	</desc>
	<defs/>
	<path id="Vector" d="M0 10C0 14.13 6.27 24.28 9.65 29.6C9.81 29.86 10.18 29.86 10.34 29.6C13.72 24.28 20 14.13 20 10C20 1.12 9.21 -3.35 2.92 2.93C1.12 4.74 0 7.24 0 10L0 10ZM12.11 7.88C13.28 9.05 13.28 10.95 12.11 12.12C10.23 14 7 12.66 7 10C7 7.34 10.23 6 12.11 7.88ZM9.99 4.94C14.49 4.94 16.76 10.4 13.57 13.58C10.39 16.76 4.93 14.5 4.93 10C4.93 7.21 7.2 4.94 9.99 4.94Z" fill="#3742F3" fill-opacity="1.000000" fill-rule="evenodd"/>
	<circle id="Ellipse 16" cx="10.000000" cy="10.000000" r="4.000000" fill="#3742F3" fill-opacity="1.000000"/>
</svg>
